X: 868
T: Gönlümü Dûçar Eden Bu Hale Hep
C: Şevki Bey
O: Turkey
F: http://compmusic.upf.edu/node/140
N: hicazkar--sarki--devrihindi--gonlumu_ducar--sevki_bey
N: makam= hicazkar
N: form= sarki
N: usul= devrihindi = 7/4
M: 7/4
L: 1/16
K: C _1/4B _7/8e _7/8A ^f
Q: 1/4=84
%%MIDI tuningsystem comma53
g4 g2 fg ag g4  | ba ag gf fe ed d4  | \
w:  Gön lü mü  *  *  *  dû  |  çar_ *  *  *  e *  den  *  *  *  bu   | 
g3/2f/ e2 f2 g3f/e/ d/c/B/A/ G2  | 
w:  ha *  *  le  hep   SAZ  | 
g4 g2 fg ag g4  | ba ag gf fe ed d4  | \
w:  Gön lü mü  *  *  *  dû  |  çar_ *  *  *  e *  den  *  *  *  bu   | 
g3/2f/ e2 f2 g3d ef g2  | 
w:  ha *  *  le  hep   SAZ  | 
a2 gf ed cd _1/4e=f g4  | =fa gf ed cd e/f/e/d/ d4  | 
w:  Ka *  *  re  *  göz *  *  *  lüm   |  ka *  *  *  re  *  bah *  *  *  *  *  tım  | 
c4 e2 d2 c2 B2 AG  | B4 c2 BA AG G4  | \
w:  dır  se bep    |  Ka re  göz *  *  *  lüm   | 
GA Bc d_1/4e =fg2f _7/8e3/2d/ cd  | 
w:  ka *  *  *  re  *  bah *  *  tım  | 
Bc BA AG G3c Bd c2  | B4 c2 BA AG G4  | \
w:  dır  *  *  *  se *  bep   SAZ  |  Et ti ğim  *  *  *  ah_  | 
c4 d2 e3/2d/ cB c4  | 
w:  ü  fi ga *  *  *  ne   | 
g3/2f/ e2 f2 g3f/e/ d/c/B/d/ c2  | \
w:  ruz_ *  *  ü  şeb   SAZ  | 
B4 c2 BA AG G4  | c4 d2 e3/2d/ cB c4  | 
w:  Et ti ğim  *  *  *  ah_  |  ü  fi ga *  *  *  ne   | 
g3/2f/ e2 f2 g3d ef g2  | a2 gf ed cd _1/4e=f g4  | \
w:  ruz_ *  *  ü  şeb   SAZ  |  Ka *  *  re  *  göz *  *  *  lüm   | 
=fa gf ed cd e/f/e/d/ d4  | 
w:  ka *  *  *  re  *  bah *  *  *  *  *  tım  | 
c4 e2 d2 c2 B2 AG  | B4 c2 BA AG G4  | \
w:  dır  se bep    |  Ka re  göz *  *  *  lüm   | 
GA Bc d_1/4e =fg2f _7/8e3/2d/ cd  | 
w:  ka *  *  *  re  *  bah *  *  tım  | 
Bc BA AG G3|
w:  dır  *  *  *  se *  bep    | 


